public/icons/Papay.svg

<svg width="73" height="34" viewBox="0 0 73 34" fill="none" xmlns="http://www.w3.org/2000/svg">
<path d="M2.87491 26.8715C2.32491 26.8715 1.80791 26.7175 1.32391 26.4095C0.839906 26.1015 0.597906 25.7055 0.597906 25.2215C0.597906 24.9795 0.652906 24.6825 0.762906 24.3305C0.872906 24.0005 0.971906 23.6925 1.05991 23.4065C1.76391 21.2505 2.42391 19.2375 3.03991 17.3675C3.65591 15.4975 4.27191 13.6825 4.88791 11.9225C5.50391 10.1625 6.15291 8.40249 6.83491 6.64249C7.53891 4.88249 8.31991 3.04549 9.17791 1.13149C8.34191 1.28549 7.59391 1.51649 6.93391 1.82449C6.29591 2.11049 5.77891 2.37449 5.38291 2.61649C4.98691 2.83649 4.72291 2.94649 4.59091 2.94649C4.50291 2.94649 4.37091 2.90249 4.19491 2.81449C4.04091 2.70449 3.89791 2.58349 3.76591 2.45149C3.63391 2.29749 3.56791 2.16549 3.56791 2.05549C4.13991 1.81349 4.81091 1.54949 5.58091 1.26349C6.37291 0.977488 7.21991 0.735488 8.12191 0.537487C9.02391 0.339487 9.93691 0.240487 10.8609 0.240487C11.8289 0.240487 12.8079 0.372488 13.7979 0.636488C14.8099 0.900487 15.7339 1.30749 16.5699 1.85749C17.4059 2.38549 18.0769 3.04549 18.5829 3.83749C19.0889 4.62949 19.3419 5.55349 19.3419 6.60949C19.3419 7.75349 19.0889 8.74349 18.5829 9.57949C18.0769 10.3935 17.4059 11.0865 16.5699 11.6585C15.7339 12.2085 14.8319 12.6595 13.8639 13.0115C12.8959 13.3415 11.9279 13.6055 10.9599 13.8035C10.0139 13.9795 9.16691 14.1005 8.41891 14.1665C7.67091 14.2105 7.12091 14.2325 6.76891 14.2325H6.43891C5.77891 16.4985 5.14091 18.7315 4.52491 20.9315C3.93091 23.1315 3.38091 25.1115 2.87491 26.8715ZM6.57091 13.7045C7.78091 13.6385 9.00191 13.4405 10.2339 13.1105C11.4879 12.7805 12.6319 12.3075 13.6659 11.6915C14.6999 11.0535 15.5359 10.2725 16.1739 9.34849C16.8119 8.40249 17.1309 7.30249 17.1309 6.04849C17.1309 4.86049 16.8449 3.89249 16.2729 3.14449C15.7229 2.39649 14.9859 1.84649 14.0619 1.49449C13.1599 1.12049 12.1919 0.933486 11.1579 0.933486C10.3439 2.53949 9.55191 4.46449 8.78191 6.70849C8.01191 8.95249 7.27491 11.2845 6.57091 13.7045ZM16.4766 25.5515C15.7946 25.5515 15.2226 25.3205 14.7606 24.8585C14.2766 24.4185 14.0346 23.7365 14.0346 22.8125C14.0346 22.0205 14.2106 21.1735 14.5626 20.2715C14.9146 19.3475 15.3986 18.4455 16.0146 17.5655C16.6306 16.6635 17.3236 15.8495 18.0936 15.1235C18.8856 14.3755 19.7106 13.7815 20.5686 13.3415C21.4486 12.9015 22.3176 12.6815 23.1756 12.6815C24.0336 12.6815 24.7486 12.9125 25.3206 13.3745C25.8926 13.8145 26.1786 14.4085 26.1786 15.1565C26.1786 15.7065 26.0246 16.0805 25.7166 16.2785C25.4306 16.4765 25.0456 16.5755 24.5616 16.5755C24.6056 16.3995 24.6386 16.2125 24.6606 16.0145C24.7046 15.7945 24.7266 15.5965 24.7266 15.4205C24.7266 14.9145 24.6056 14.4855 24.3636 14.1335C24.1216 13.7595 23.7036 13.5725 23.1096 13.5725C22.4936 13.5725 21.8666 13.7925 21.2286 14.2325C20.5906 14.6505 19.9746 15.2225 19.3806 15.9485C18.7866 16.6525 18.2586 17.4225 17.7966 18.2585C17.3346 19.0945 16.9716 19.9195 16.7076 20.7335C16.4436 21.5475 16.3116 22.2735 16.3116 22.9115C16.3116 23.7695 16.6086 24.1985 17.2026 24.1985C17.7086 24.1985 18.2586 23.9675 18.8526 23.5055C19.4466 23.0215 20.0516 22.4165 20.6676 21.6905C21.3056 20.9425 21.9106 20.1725 22.4826 19.3805C23.0546 18.5885 23.5606 17.8625 24.0006 17.2025C24.0886 17.0705 24.1436 17.0045 24.1656 17.0045C24.2976 17.0265 24.4626 17.0705 24.6606 17.1365C24.8806 17.2025 25.0676 17.2905 25.2216 17.4005C25.3756 17.5105 25.4526 17.6535 25.4526 17.8295C25.4526 18.0275 25.3536 18.3025 25.1556 18.6545C24.9576 18.9845 24.7376 19.3695 24.4956 19.8095C24.2536 20.2495 24.0336 20.7005 23.8356 21.1625C23.6376 21.6025 23.5386 22.0205 23.5386 22.4165C23.5386 22.7465 23.6266 23.0765 23.8026 23.4065C23.9786 23.7145 24.2646 23.8685 24.6606 23.8685C25.2546 23.8685 26.0356 23.4395 27.0036 22.5815C27.9716 21.7015 28.9506 20.3925 29.9406 18.6545L30.2706 18.9845C29.8086 20.1725 29.2146 21.2175 28.4886 22.1195C27.7626 23.0215 26.9816 23.7255 26.1456 24.2315C25.3316 24.7375 24.5286 24.9905 23.7366 24.9905C22.9226 24.9905 22.3176 24.7485 21.9216 24.2645C21.5476 23.7805 21.3606 23.2525 21.3606 22.6805C21.3606 22.5485 21.3716 22.4055 21.3936 22.2515C21.4156 22.0755 21.4376 21.8995 21.4596 21.7235C20.5136 22.9995 19.6446 23.9565 18.8526 24.5945C18.0826 25.2325 17.2906 25.5515 16.4766 25.5515ZM27.1866 33.2405C27.0106 33.2405 26.8456 33.1415 26.6916 32.9435C26.5156 32.7675 26.3836 32.5695 26.2956 32.3495C26.2076 32.1515 26.1636 32.0305 26.1636 31.9865C26.4716 30.9085 26.7796 29.9405 27.0876 29.0825C27.3736 28.2465 27.6706 27.3775 27.9786 26.4755C28.2646 25.5955 28.5506 24.5615 28.8366 23.3735C29.1226 22.1635 29.4196 20.6675 29.7276 18.8855C30.0356 17.1035 30.3436 14.8925 30.6516 12.2525C30.6736 12.0545 30.7176 11.9115 30.7836 11.8235C30.8496 11.7355 31.0146 11.6915 31.2786 11.6915C31.8506 11.6915 32.2576 11.8565 32.4996 12.1865C32.7416 12.4945 32.8626 12.8355 32.8626 13.2095C32.8626 13.5175 32.7966 14.0675 32.6646 14.8595C32.5326 15.6515 32.3456 16.5865 32.1036 17.6645C32.4776 16.9385 32.9396 16.2015 33.4896 15.4535C34.0616 14.7055 34.7106 14.0785 35.4366 13.5725C36.1626 13.0665 36.9546 12.8135 37.8126 12.8135C38.7806 12.8135 39.5726 13.1655 40.1886 13.8695C40.8266 14.5515 41.1456 15.4535 41.1456 16.5755C41.1456 17.4335 40.9476 18.3465 40.5516 19.3145C40.1776 20.2605 39.6386 21.1625 38.9346 22.0205C38.2526 22.8565 37.4386 23.5385 36.4926 24.0665C35.5466 24.5945 34.5016 24.8585 33.3576 24.8585C32.7856 24.8585 32.3236 24.7925 31.9716 24.6605C31.6196 24.5285 31.4436 24.3965 31.4436 24.2645C31.4436 24.1765 31.5206 24.1215 31.6746 24.0995C31.8506 24.0995 32.0486 24.0995 32.2686 24.0995C33.1486 24.0995 33.9846 23.8905 34.7766 23.4725C35.5906 23.0325 36.3166 22.4605 36.9546 21.7565C37.5926 21.0525 38.0876 20.2715 38.4396 19.4135C38.8136 18.5555 39.0006 17.7085 39.0006 16.8725C39.0006 16.1685 38.8466 15.5745 38.5386 15.0905C38.2526 14.5845 37.7796 14.3315 37.1196 14.3315C36.5476 14.3315 35.9756 14.5185 35.4036 14.8925C34.8536 15.2445 34.3256 15.7065 33.8196 16.2785C33.3356 16.8285 32.8956 17.4115 32.4996 18.0275C32.1256 18.6215 31.8396 19.1605 31.6416 19.6445C31.2456 21.2945 30.8496 22.8785 30.4536 24.3965C30.0576 25.9365 29.6726 27.3225 29.2986 28.5545C28.9466 29.8085 28.6276 30.8315 28.3416 31.6235C28.0336 32.4155 27.7806 32.8995 27.5826 33.0755C27.4726 33.1855 27.3406 33.2405 27.1866 33.2405ZM43.7403 25.5515C43.0583 25.5515 42.4863 25.3205 42.0242 24.8585C41.5402 24.4185 41.2982 23.7365 41.2982 22.8125C41.2982 22.0205 41.4742 21.1735 41.8262 20.2715C42.1782 19.3475 42.6623 18.4455 43.2783 17.5655C43.8943 16.6635 44.5873 15.8495 45.3573 15.1235C46.1493 14.3755 46.9743 13.7815 47.8323 13.3415C48.7123 12.9015 49.5813 12.6815 50.4393 12.6815C51.2973 12.6815 52.0123 12.9125 52.5843 13.3745C53.1563 13.8145 53.4423 14.4085 53.4423 15.1565C53.4423 15.7065 53.2883 16.0805 52.9803 16.2785C52.6943 16.4765 52.3093 16.5755 51.8253 16.5755C51.8693 16.3995 51.9023 16.2125 51.9243 16.0145C51.9683 15.7945 51.9903 15.5965 51.9903 15.4205C51.9903 14.9145 51.8693 14.4855 51.6273 14.1335C51.3853 13.7595 50.9673 13.5725 50.3733 13.5725C49.7573 13.5725 49.1303 13.7925 48.4923 14.2325C47.8543 14.6505 47.2383 15.2225 46.6443 15.9485C46.0503 16.6525 45.5223 17.4225 45.0603 18.2585C44.5983 19.0945 44.2353 19.9195 43.9713 20.7335C43.7073 21.5475 43.5753 22.2735 43.5753 22.9115C43.5753 23.7695 43.8723 24.1985 44.4663 24.1985C44.9723 24.1985 45.5223 23.9675 46.1163 23.5055C46.7103 23.0215 47.3153 22.4165 47.9313 21.6905C48.5693 20.9425 49.1743 20.1725 49.7463 19.3805C50.3183 18.5885 50.8243 17.8625 51.2643 17.2025C51.3523 17.0705 51.4073 17.0045 51.4293 17.0045C51.5613 17.0265 51.7263 17.0705 51.9243 17.1365C52.1443 17.2025 52.3313 17.2905 52.4853 17.4005C52.6393 17.5105 52.7163 17.6535 52.7163 17.8295C52.7163 18.0275 52.6173 18.3025 52.4193 18.6545C52.2213 18.9845 52.0013 19.3695 51.7593 19.8095C51.5173 20.2495 51.2973 20.7005 51.0993 21.1625C50.9013 21.6025 50.8023 22.0205 50.8023 22.4165C50.8023 22.7465 50.8903 23.0765 51.0663 23.4065C51.2423 23.7145 51.5283 23.8685 51.9243 23.8685C52.5183 23.8685 53.2993 23.4395 54.2673 22.5815C55.2353 21.7015 56.2143 20.3925 57.2043 18.6545L57.5343 18.9845C57.0723 20.1725 56.4783 21.2175 55.7523 22.1195C55.0263 23.0215 54.2453 23.7255 53.4093 24.2315C52.5953 24.7375 51.7923 24.9905 51.0003 24.9905C50.1863 24.9905 49.5813 24.7485 49.1853 24.2645C48.8113 23.7805 48.6243 23.2525 48.6243 22.6805C48.6243 22.5485 48.6353 22.4055 48.6573 22.2515C48.6793 22.0755 48.7013 21.8995 48.7233 21.7235C47.7773 22.9995 46.9083 23.9565 46.1163 24.5945C45.3463 25.2325 44.5543 25.5515 43.7403 25.5515ZM57.9483 33.2405C57.3983 33.2405 56.9143 33.0865 56.4963 32.7785C56.0783 32.4925 55.8693 32.0635 55.8693 31.4915C55.8693 30.7875 56.0453 30.1605 56.3973 29.6105C56.7493 29.0605 57.2223 28.5545 57.8163 28.0925C58.4103 27.6305 59.0923 27.1905 59.8623 26.7725C60.6323 26.3545 61.4353 25.9365 62.2713 25.5185C62.5793 24.7045 62.8873 23.8025 63.1953 22.8125C63.5253 21.8005 63.8333 20.6895 64.1193 19.4795C63.4153 20.6235 62.6563 21.6135 61.8423 22.4495C61.0503 23.2635 60.2033 23.6705 59.3013 23.6705C58.8833 23.6705 58.4653 23.5825 58.0473 23.4065C57.6513 23.2085 57.3213 22.9115 57.0573 22.5155C56.7933 22.1195 56.6613 21.6135 56.6613 20.9975C56.6613 20.3815 56.7603 19.6665 56.9583 18.8525C57.1783 18.0385 57.4423 17.2465 57.7503 16.4765C58.0583 15.7065 58.3773 15.0685 58.7073 14.5625C59.0373 14.0565 59.3233 13.8035 59.5653 13.8035C59.6533 13.8035 59.8073 13.8365 60.0273 13.9025C60.2693 13.9685 60.4893 14.0675 60.6873 14.1995C60.9073 14.3095 61.0173 14.4305 61.0173 14.5625C60.8193 14.8485 60.5993 15.2555 60.3573 15.7835C60.1153 16.3115 59.8733 16.9055 59.6313 17.5655C59.4113 18.2035 59.2243 18.8305 59.0703 19.4465C58.9163 20.0625 58.8393 20.5905 58.8393 21.0305C58.8393 21.4265 58.9273 21.7455 59.1033 21.9875C59.2793 22.2295 59.5873 22.3505 60.0273 22.3505C60.4453 22.3505 60.9073 22.1525 61.4133 21.7565C61.9413 21.3385 62.4583 20.8105 62.9643 20.1725C63.4923 19.5345 63.9763 18.8525 64.4163 18.1265C64.4823 17.8845 64.5373 17.6425 64.5813 17.4005C64.6473 17.1365 64.7023 16.8725 64.7463 16.6085C64.8123 16.3005 64.9663 15.9485 65.2083 15.5525C65.4723 15.1345 65.8793 14.9255 66.4293 14.9255C66.5393 14.9255 66.6493 14.9365 66.7593 14.9585C66.8693 14.9585 66.9903 14.9805 67.1223 15.0245C67.1223 15.3765 67.0123 16.0365 66.7923 17.0045C66.5943 17.9505 66.2973 19.0615 65.9013 20.3375C65.5273 21.6135 65.0763 22.9225 64.5483 24.2645C65.5823 23.8685 66.5943 23.2195 67.5843 22.3175C68.5743 21.3935 69.3773 20.1725 69.9933 18.6545L70.4223 18.9845C70.0923 20.0405 69.5863 20.9645 68.9043 21.7565C68.2443 22.5265 67.4963 23.1975 66.6603 23.7695C65.8243 24.3195 64.9993 24.7815 64.1853 25.1555C63.6133 26.5635 62.9863 27.8835 62.3043 29.1155C61.6443 30.3475 60.9403 31.3375 60.1923 32.0855C59.4663 32.8555 58.7183 33.2405 57.9483 33.2405ZM57.7833 32.1845C58.1133 32.1845 58.6633 31.7445 59.4333 30.8645C60.2253 30.0065 61.0613 28.4885 61.9413 26.3105C61.0393 26.7945 60.2033 27.2675 59.4333 27.7295C58.6633 28.2135 58.0473 28.7305 57.5853 29.2805C57.1233 29.8305 56.8923 30.4685 56.8923 31.1945C56.8923 31.3705 56.9583 31.5795 57.0903 31.8215C57.2223 32.0635 57.4533 32.1845 57.7833 32.1845ZM70.6755 24.3305C70.3895 24.3305 70.1365 24.2535 69.9165 24.0995C69.7185 23.9675 69.6195 23.7475 69.6195 23.4395C69.6195 23.1975 69.7185 22.9775 69.9165 22.7795C70.1145 22.5595 70.3565 22.3945 70.6425 22.2845C70.9505 22.1525 71.2475 22.0865 71.5335 22.0865C71.7975 22.0865 72.0065 22.1415 72.1605 22.2515C72.3145 22.3615 72.3915 22.5705 72.3915 22.8785C72.3915 23.0985 72.3035 23.3185 72.1275 23.5385C71.9735 23.7585 71.7645 23.9455 71.5005 24.0995C71.2365 24.2535 70.9615 24.3305 70.6755 24.3305Z" fill="#D7B686"/>
</svg>

<svg xmlns="http://www.w3.org/2000/svg" width="73" height="34" fill="none"><path fill="#D7B686" d="M2.875 26.872c-.55 0-1.067-.154-1.551-.462-.484-.308-.726-.704-.726-1.189 0-.241.055-.538.165-.89.11-.33.209-.639.297-.924.704-2.157 1.364-4.17 1.98-6.04.616-1.87 1.232-3.685 1.848-5.445.616-1.76 1.265-3.52 1.947-5.28.704-1.76 1.485-3.597 2.343-5.51a9.259 9.259 0 0 0-2.244.692c-.638.286-1.155.55-1.551.792-.396.22-.66.33-.792.33-.088 0-.22-.044-.396-.132a3.401 3.401 0 0 1-.43-.363c-.131-.154-.197-.286-.197-.396a49.21 49.21 0 0 1 2.013-.792A20.283 20.283 0 0 1 8.12.537a12.738 12.738 0 0 1 2.74-.297c.968 0 1.947.132 2.937.396a9.254 9.254 0 0 1 2.772 1.221 6.41 6.41 0 0 1 2.013 1.98c.506.792.759 1.716.759 2.772 0 1.144-.253 2.134-.76 2.97a6.96 6.96 0 0 1-2.012 2.08 12.965 12.965 0 0 1-2.706 1.352c-.968.33-1.936.595-2.904.793a27.06 27.06 0 0 1-2.541.362c-.748.044-1.298.066-1.65.066h-.33a669.234 669.234 0 0 0-1.914 6.7c-.594 2.2-1.144 4.18-1.65 5.94ZM6.57 13.704a17.9 17.9 0 0 0 3.663-.594 13.258 13.258 0 0 0 3.432-1.418c1.034-.639 1.87-1.42 2.508-2.344.638-.946.957-2.046.957-3.3 0-1.188-.286-2.156-.858-2.904-.55-.748-1.287-1.298-2.211-1.65a7.506 7.506 0 0 0-2.904-.56c-.814 1.605-1.606 3.53-2.376 5.774a154.72 154.72 0 0 0-2.211 6.996Zm9.906 11.848c-.682 0-1.254-.232-1.716-.694-.484-.44-.726-1.122-.726-2.046 0-.792.176-1.639.528-2.54.352-.924.836-1.826 1.452-2.706a14.862 14.862 0 0 1 2.079-2.442c.792-.748 1.617-1.343 2.475-1.783.88-.44 1.749-.66 2.607-.66.858 0 1.573.232 2.145.694.572.44.858 1.034.858 1.781 0 .55-.154.925-.462 1.123-.286.198-.671.297-1.155.297.044-.177.077-.364.099-.561.044-.22.066-.418.066-.595 0-.505-.121-.934-.363-1.287-.242-.373-.66-.56-1.254-.56-.616 0-1.243.22-1.881.66-.638.417-1.254.99-1.848 1.715a14.283 14.283 0 0 0-1.584 2.31 14.16 14.16 0 0 0-1.09 2.476c-.263.813-.395 1.54-.395 2.177 0 .858.297 1.287.89 1.287.507 0 1.057-.23 1.65-.692a14.105 14.105 0 0 0 1.816-1.816 36.392 36.392 0 0 0 1.815-2.31A71.405 71.405 0 0 0 24 17.204c.088-.133.143-.198.165-.198.132.021.297.066.495.132.22.066.407.154.56.264.155.11.232.253.232.428 0 .198-.1.473-.297.825-.198.33-.418.715-.66 1.155-.242.44-.462.892-.66 1.354-.198.44-.297.857-.297 1.253 0 .33.088.66.264.99.176.309.462.463.858.463.594 0 1.375-.43 2.343-1.288.968-.88 1.947-2.189 2.937-3.927l.33.33c-.462 1.188-1.056 2.233-1.782 3.135-.726.902-1.507 1.607-2.343 2.113-.814.506-1.617.759-2.41.759-.813 0-1.418-.242-1.814-.726-.374-.485-.561-1.012-.561-1.585 0-.131.01-.274.033-.428l.066-.528c-.946 1.276-1.815 2.232-2.607 2.87-.77.639-1.562.957-2.376.957Zm10.71 7.688c-.176 0-.341-.099-.495-.297a1.758 1.758 0 0 1-.396-.593c-.088-.199-.132-.32-.132-.364.308-1.078.616-2.046.924-2.904.286-.835.583-1.704.89-2.607.287-.88.573-1.914.859-3.102.286-1.21.583-2.706.89-4.488.309-1.782.617-3.993.925-6.633.022-.197.066-.34.132-.429.066-.088.23-.132.495-.132.572 0 .979.165 1.22.495.243.309.364.65.364 1.024 0 .307-.066.857-.198 1.65a52.361 52.361 0 0 1-.561 2.805c.374-.726.836-1.463 1.386-2.211a8.743 8.743 0 0 1 1.947-1.882 4.07 4.07 0 0 1 2.376-.758c.968 0 1.76.351 2.376 1.056.638.682.957 1.584.957 2.706 0 .857-.198 1.77-.594 2.738a10.143 10.143 0 0 1-1.617 2.706 8.416 8.416 0 0 1-2.442 2.047c-.946.527-1.991.791-3.135.791-.572 0-1.034-.066-1.386-.198-.352-.131-.528-.264-.528-.395 0-.088.077-.143.23-.166h.595c.88 0 1.716-.209 2.508-.627a8.162 8.162 0 0 0 2.178-1.716 7.977 7.977 0 0 0 1.485-2.343c.374-.858.56-1.704.56-2.54 0-.704-.153-1.299-.461-1.783-.286-.505-.76-.758-1.42-.758-.571 0-1.143.186-1.715.56a7.615 7.615 0 0 0-1.584 1.387 14.57 14.57 0 0 0-1.32 1.748 10.71 10.71 0 0 0-.858 1.617 249.72 249.72 0 0 1-1.188 4.753c-.396 1.54-.781 2.926-1.155 4.158a45.704 45.704 0 0 1-.957 3.069c-.308.792-.561 1.276-.76 1.451a.54.54 0 0 1-.395.165Zm16.553-7.689c-.682 0-1.254-.23-1.716-.692-.484-.44-.726-1.123-.726-2.047 0-.792.176-1.639.528-2.54.352-.924.836-1.826 1.452-2.706a14.862 14.862 0 0 1 2.08-2.442c.791-.748 1.616-1.343 2.474-1.783.88-.44 1.75-.66 2.607-.66.858 0 1.573.232 2.145.694.572.44.858 1.034.858 1.781 0 .55-.154.925-.462 1.123-.286.198-.67.297-1.155.297.044-.177.077-.364.1-.561.043-.22.065-.418.065-.595 0-.505-.12-.934-.363-1.287-.242-.373-.66-.56-1.254-.56-.616 0-1.243.22-1.88.66-.639.417-1.255.99-1.849 1.715a14.283 14.283 0 0 0-1.584 2.31 14.16 14.16 0 0 0-1.089 2.476c-.264.813-.396 1.54-.396 2.177 0 .858.297 1.287.891 1.287.506 0 1.056-.23 1.65-.692a14.105 14.105 0 0 0 1.815-1.816 36.392 36.392 0 0 0 1.815-2.31 71.405 71.405 0 0 0 1.518-2.177c.088-.133.143-.198.165-.198.132.021.297.066.495.132.22.066.407.154.561.264.154.11.231.253.231.428 0 .198-.099.473-.297.825-.198.33-.418.715-.66 1.155-.242.44-.462.892-.66 1.354-.198.44-.297.857-.297 1.253 0 .33.088.66.264.99.176.309.462.463.858.463.594 0 1.375-.43 2.343-1.288.968-.88 1.947-2.189 2.937-3.927l.33.33c-.462 1.188-1.056 2.233-1.782 3.135-.726.902-1.507 1.607-2.343 2.113-.814.506-1.617.759-2.409.759-.814 0-1.419-.242-1.815-.726-.374-.485-.56-1.012-.56-1.585 0-.131.01-.274.032-.428l.066-.528c-.946 1.276-1.815 2.232-2.607 2.87-.77.639-1.562.957-2.376.957Zm14.208 7.69c-.55 0-1.034-.154-1.452-.462-.418-.287-.627-.716-.627-1.288 0-.703.176-1.33.528-1.88.352-.55.825-1.056 1.42-1.518a14.93 14.93 0 0 1 2.045-1.32c.77-.418 1.573-.837 2.41-1.255a47.84 47.84 0 0 0 .923-2.706c.33-1.012.638-2.123.924-3.332-.704 1.143-1.463 2.133-2.277 2.97-.792.814-1.639 1.22-2.54 1.22a3.21 3.21 0 0 1-1.255-.264 2.554 2.554 0 0 1-.99-.89c-.264-.396-.396-.902-.396-1.518 0-.617.1-1.332.297-2.146.22-.814.484-1.605.792-2.375.308-.77.627-1.409.957-1.915.33-.505.616-.758.858-.758.088 0 .242.032.462.098.242.067.462.166.66.298.22.11.33.23.33.363-.198.285-.418.692-.66 1.22a24.735 24.735 0 0 0-.726 1.783c-.22.637-.407 1.265-.56 1.88-.155.616-.232 1.144-.232 1.584 0 .396.088.715.264.957.176.243.484.364.924.364.418 0 .88-.198 1.386-.595a9.667 9.667 0 0 0 1.551-1.584 17.123 17.123 0 0 0 1.452-2.046c.066-.242.121-.484.165-.726.066-.263.121-.527.165-.791.066-.309.22-.66.462-1.057.264-.418.671-.627 1.221-.627.11 0 .22.011.33.034.11 0 .231.021.363.066 0 .351-.11 1.011-.33 1.98a37.188 37.188 0 0 1-.89 3.332 46.342 46.342 0 0 1-1.354 3.928c1.034-.396 2.046-1.046 3.036-1.948.99-.924 1.793-2.145 2.41-3.663l.428.33a7.724 7.724 0 0 1-1.518 2.772c-.66.77-1.408 1.442-2.244 2.014a18.794 18.794 0 0 1-2.475 1.386 36.655 36.655 0 0 1-1.88 3.96c-.66 1.232-1.365 2.221-2.113 2.97-.726.77-1.474 1.154-2.244 1.154Zm-.165-1.056c.33 0 .88-.44 1.65-1.32.792-.858 1.628-2.377 2.508-4.554-.902.483-1.738.956-2.508 1.419-.77.483-1.386 1-1.848 1.55a2.887 2.887 0 0 0-.693 1.915c0 .175.066.384.198.627.132.241.363.363.693.363Zm12.892-7.855a1.29 1.29 0 0 1-.758-.23c-.198-.133-.297-.353-.297-.66 0-.242.099-.463.296-.66.199-.22.44-.386.727-.495.308-.133.605-.198.89-.198.264 0 .474.055.627.165.154.11.231.319.231.627 0 .22-.088.44-.264.66-.153.22-.362.406-.626.56a1.615 1.615 0 0 1-.826.232Z"/></svg>
